X: 1423
T: Considine's Grove
M:C|
L:1/8
N:"collected by Cronin"
B:O'Neill's 1423
Z:"Transcribed by Bob Safranek, rjs@gsp.org"
K:Am
 D | E^DEF GFGA | BdAF DFAF | E^DEF GFGA | BdAF BE E :|
^d | efge  fgaf | efge fddf | efge  fgaf | gfed Bee^d |
     efge  fgaf | efge fddf | eBBA  BcAF | GBAF BE E  |]


